modules/themify-icons/icons/layout-slider.svg

<?xml version="1.0" encoding="utf-8"?>
<!-- Generated by IcoMoon.io -->
<!DOCTYPE svg PUBLIC "-//W3C//DTD SVG 1.1//EN" "http://www.w3.org/Graphics/SVG/1.1/DTD/svg11.dtd">
<svg version="1.1" xmlns="http://www.w3.org/2000/svg" xmlns:xlink="http://www.w3.org/1999/xlink" width="17" height="17" viewBox="0 0 17 17">
<g>
</g>
	<path d="M0 1v14h17v-14h-17zM16 14h-15v-12h15v12zM4.646 10.354l-2.353-2.354 2.354-2.354 0.707 0.707-1.647 1.647 1.646 1.646-0.707 0.708zM11.646 9.646l1.647-1.646-1.646-1.646 0.707-0.707 2.353 2.353-2.354 2.354-0.707-0.708z" fill="#000000" />
</svg>

<svg xmlns="http://www.w3.org/2000/svg" width="17" height="17" viewBox="0 0 17 17"><path d="M0 1v14h17V1H0zm16 13H1V2h15v12zM4.646 10.354L2.293 8l2.354-2.354.707.707L3.707 8l1.646 1.646-.707.708zm7-.708L13.293 8l-1.646-1.646.707-.707L14.707 8l-2.354 2.354-.707-.708z"/></svg>
